src/actions/24/xml-node-delete-symbolic.svg

<?xml version="1.0" encoding="UTF-8" standalone="no"?>
<svg
   width="24"
   height="24"
   version="1.1"
   id="svg8214"
   sodipodi:docname="xml-node-delete-symbolic.svg"
   inkscape:version="1.2.2 (b0a8486541, 2022-12-01)"
   xmlns:inkscape="http://www.inkscape.org/namespaces/inkscape"
   xmlns:sodipodi="http://sodipodi.sourceforge.net/DTD/sodipodi-0.dtd"
   xmlns="http://www.w3.org/2000/svg"
   xmlns:svg="http://www.w3.org/2000/svg">
  <defs
     id="defs8218" />
  <sodipodi:namedview
     id="namedview8216"
     pagecolor="#ffffff"
     bordercolor="#666666"
     borderopacity="1.0"
     inkscape:showpageshadow="2"
     inkscape:pageopacity="0.0"
     inkscape:pagecheckerboard="0"
     inkscape:deskcolor="#d1d1d1"
     showgrid="true"
     inkscape:zoom="9.8333333"
     inkscape:cx="9.9152542"
     inkscape:cy="18.305085"
     inkscape:window-width="1920"
     inkscape:window-height="1014"
     inkscape:window-x="0"
     inkscape:window-y="32"
     inkscape:window-maximized="1"
     inkscape:current-layer="svg8214">
    <inkscape:grid
       type="xygrid"
       id="grid8237" />
  </sodipodi:namedview>
  <path
     id="rect8170"
     style="fill:#363636;fill-rule:evenodd;stroke-width:0.912871;stroke-linecap:square;stop-color:#000000"
     d="M 12.552734 5.0078125 L 11 11 L 11.980469 11 L 13.517578 5.265625 L 12.552734 5.0078125 z M 7.5351562 5.4648438 L 4.7070312 8.2929688 L 4 9 L 7.5351562 12.535156 L 8.2421875 11.828125 L 5.4140625 9 L 8.2421875 6.171875 L 7.5351562 5.4648438 z M 16.464844 5.4648438 L 15.757812 6.171875 L 18.585938 9 L 18 9.5859375 L 18 10 L 18 11 L 19.292969 9.7070312 L 20 9 L 19.292969 8.2929688 L 16.464844 5.4648438 z " />
  <path
     style="color:#000000;fill:#363636;fill-rule:evenodd;stroke-width:2;stroke-linecap:square;-inkscape-stroke:none"
     d="m 15,11 v 1 h -3 v 1 h 8 v -1 h -3 v -1 z m -2,3 v 5 c 0,0.553997 0.446003,1 1,1 h 4 c 0.553997,0 1,-0.446003 1,-1 v -5 h -1 -4 z m 1,1 h 4 v 4 h -4 z"
     id="path8746" />
</svg>

<svg xmlns="http://www.w3.org/2000/svg" width="24" height="24">
    <path d="M12.553 5.008 11 11h.98l1.538-5.734-.965-.258zm-5.018.457L4.707 8.293 4 9l3.535 3.535.707-.707L5.414 9l2.828-2.828-.707-.707zm8.93 0-.707.707L18.586 9 18 9.586V11l1.293-1.293L20 9l-.707-.707-2.828-2.828z" style="fill:#050505;fill-opacity:.7;fill-rule:evenodd;stroke-width:.912871;stroke-linecap:square;stop-color:#000"/>
    <path d="M15 11v1h-3v1h8v-1h-3v-1zm-2 3v5c0 .554.446 1 1 1h4c.554 0 1-.446 1-1v-5h-5zm1 1h4v4h-4z" style="color:#000;fill:#050505;fill-opacity:.7;fill-rule:evenodd;stroke-width:2;stroke-linecap:square;-inkscape-stroke:none"/>
</svg>
